X: 25680
T: Martin Wynne's
R: reel
M: 4/4
K: Dmajor
AF F2 GE E2|F2 AF EFDB|ABde f3B|ABde fe e2|
AF F2 GE E2|F2 AF EFDB|ABde f3B|ABde fd d2||
faaf gfeg|fedf edBc|dBAF DEFB|ABde fe e2|
faaf gfeg|fedf edBc|dBAF DEFB|ABde fd d2||

